X:1
T:No Time
T:No Time
T:George Nelson Allen, 1844 
T:Richard W. Adams, 2015
T:© 2015  Richard W. Adams. Reproduce or publish freely for Christian worship or devotions. Courtesy of the Cyber Hymnal™
C:George Nelson Allen, 1844
Z:© 2015  Richard W. Adams. Reproduce or publish freely for Christian worship or devotions.
Z:Courtesy of the Cyber Hymnal™
%%score ( 1 2 ) ( 3 4 )
L:1/8
M:6/4
K:Ab
V:1 treble 
V:2 treble 
V:3 bass 
V:4 bass 
V:1
 ([A,C][B,D]) | [CE]4 [CE]2 [CA]4 [Ec]2 | [DB]4 [DA]2 ([DF] [FA]3) [DF]2 | E4 [B,E]2 [EA]4 [Ec]2 | %4
w: 1.~With *|God’s She- ki- nah|glo- ry filled, * Heav’n|needs no sun or|
w: 2.~No *|fleet- ing years, or|mis- spent hours, * No|soon, or late, or|
w: 3.~No *|ghosts of past or|fu- ture there, * In|all that light kissed|
w: 4.~No *|sick beds, cem- e-|ter- ies there, * No|hearts with grief o’er-|
w: 5.~Time’s *|dark- ly flow- ing|ri- ver now * Is|ban- ished from on|
 [EB-]6 [EB]4 (cd) | [Ee]4 [Ec]2 [CA]4 [Ec]2 | [DB]4 [DA]2 ([DF-] [FA]3) [DF]2 | %7
w: moon; As dawn *|and sun- set join|to shine In * bright,|
w: speed; No yes- *|ter- day, to- mor-|row, nor A * ty-|
w: land; But end- *|less joy and peace|a- bound, Blessed * by|
w: come; No tomb- *|stones march- ing row|by row To * death’s|
w: high; Be- fore *|us year- less streams|of life: We * have|
 E4 [CA]2 [Ec]4 [DB]2 | [CA]6- [CA]4 |] %9
w: un- end- ing noon.||
w: rant clock to heed.||
w: the great I AM.||
w: low sound- ing drum.||
w: no time to die.||
V:2
 x2 | x12 | x12 | E4 x8 | x10 E2 | x12 | x12 | E4 x8 | x10 |] %9
V:3
 [A,,A,]2 | [A,,A,]4 [A,,A,]2 [A,,E,]4 [A,,A,]2 | [D,F,]4 [D,F,]2 [D,A,]4 [D,A,]2 | %3
 [C,A,]4 G,2 [C,A,]4 [A,,A,]2 | [E,G,-]6 [E,G,]4 (A,B,) | [A,C]4 A,2 [A,,E,]4 [A,,A,]2 | %6
 [D,F,]4 [D,F,]2 [D,A,]4 [D,A,]2 | [C,A,]4 [A,,A,]2 [E,A,]4 [E,G,]2 | [A,,A,]6- [A,,A,]4 |] %9
V:4
 x2 | x12 | x12 | x4 (E,D,) x6 | x10 A,2 | x4 A,2 x6 | x12 | x12 | x10 |] %9

